X: 37769
T: Sonantina
R: jig
M: 6/8
K: Gmajor
G4 AGAB|G2 gd dBBG|c4 BABc|A2 de dBcA|
G4 AGAB|c4 edef|gdec BdcA|A4 G2 z2||
A4 cBAB|dcag fedc|B4 dcBc|edba gfed|
c2 ag fedc|B2 gf edcB|A2 DE FGAB|c2 Bc dcAB|
G4 AGAB|G2 gd dBBG|c4 BABc|A2 de dBcA|
G4 AGAB|c4 edef|gdec BdcA|A4 G2 z2||

